X:17
T: The Heathery Crauch
L: 1/8
M: 4/4
K: D
 Au(c| "D"d2)Au(G FD)D(E | FG)A(F "A"E2)Au(c | "D"d2)A(G FD)D(E | "G"FG)"A"(AF) "D"D2Au(c |
     "D"d2)A(G FD)DE | v(FG)u(AF "A"E2)EF | "D"ABAu(G FD)DE | "G"(FG)"A"(AF) "D"D2 :||
ved | "A"cA~A2 c(AGA) | (cA)(cd "E"ef)ed | cA~A2 c(AGA) | v(EF)u(3(GFE) "D"D2u(ed) |
     "A"cA~A2 c(AGA) | (cA)(cd "E"ef)e2 | (efed) c(~A2G) |  v(EF)u(3(GFE) "D"D2 :||

